!!!CDT:
!!!PTL: L'Armida del Tasso posta in musica a cinque voci, col suo basso per suonare
!!!PPP: Venice
!!!PPR: Alessandro Vincenti
!!!PDT: 1629
!!!PUB-format:
!!!RISM: E 741
!!!AGN: Madrigal
!!!SCT: Tsg16059f
!!!SCA: Tsg16059f
!!!original-voices: 5+bc
!!!extant-voices: 5+bc
!!!complete: Y
!!!final: (D)G
!!!COM: Eredi, Francesco
!!!OTL: Vattene pur, crudel, con quella pace
**kern	**fb	**kern	**text	**kern	**text	**kern	**text	**kern	**text	**kern	**text
*part6	*part6	*part5	*part5	*part4	*part4	*part3	*part3	*part2	*part2	*part1	*part1
*staff6	*staff6	*staff5	*staff5	*staff4	*staff4	*staff3	*staff3	*staff2	*staff2	*staff1	*staff1
*I"Basso continuo	*	*I"Basso	*	*I"Tenore	*	*I"Quinto	*	*I"Alto	*	*I"Canto	*
*I'Bc	*	*I'B	*	*I'T	*	*I'V	*	*I'A	*	*I'C	*
*oclefF4	*	*oclefF4	*	*oclefC4	*	*oclefC4	*	*oclefC3	*	*oclefC1	*
*clefF4	*	*clefF4	*	*clefGv2	*	*clefGv2	*	*clefGv2	*	*clefG2	*
*k[b-]	*	*k[b-]	*	*k[b-]	*	*k[b-]	*	*k[b-]	*	*k[b-]	*
*F:	*	*F:	*	*F:	*	*F:	*	*F:	*	*F:	*
*omet(C)	*	*omet(C)	*	*omet(C)	*	*omet(C)	*	*omet(C)	*	*omet(C)	*
*M4/4	*	*M4/4	*	*M4/4	*	*M4/4	*	*M4/4	*	*M4/4	*
=1	=1	=1	=1	=1	=1	=1	=1	=1	=1	=1	=1
!!LO:TX:a:t=Seconda parte
1GG	.	1r	.	1r	.	1r	.	1r	.	4.g	Va-
.	.	.	.	.	.	.	.	.	.	8g	-te-
.	.	.	.	.	.	.	.	.	.	2g	-ne
=2	=2	=2	=2	=2	=2	=2	=2	=2	=2	=2	=2
4G	.	4G	Va-	4B-y	Va-	4d	Va-	4g	Va-	2b-y	pur,
8GL	.	8G	-te-	8B-y	-te-	8d	-te-	8g	-te-	.	.
8GJ	.	8G	-ne	8B-y	-ne	8d	-ne	8g	-ne	.	.
4G	.	4G	pur,	4B-y	pur,	4d	pur,	4g	pur,	2r	.
4E-X	6	4E-X	cru-	4G	cru-	4c	cru-	4g	cru-	.	.
=3	=3	=3	=3	=3	=3	=3	=3	=3	=3	=3	=3
4.D	#	4.D	-del,	4.A	-del,	1d	-del,	4.f#X	-del,	8rb	.
.	.	.	.	.	.	.	.	.	.	8.dd	Va-
.	.	.	.	.	.	.	.	.	.	16dd	-te-
8BBnX	.	8BBnXi	con	8D	con	.	.	8g	con	8dd	-ne
4BBnX	.	4BBnX	quel-	4G	quel-	.	.	4d	quel-	4.dd	pur,
4BBnXi	.	4BBnX	-la	4G	-la	.	.	4d	-la	.	.
.	.	.	.	.	.	.	.	.	.	8dd	cru-
=4	=4	=4	=4	=4	=4	=4	=4	=4	=4	=4	=4
4C	.	4C	pa-	4G	pa-	1r	.	4e	pa-	8g	-del,
.	.	.	.	.	.	.	.	.	.	8.cc	<Va-
8CL	.	8C	-ce	8G	-ce	.	.	8e	-ce	.	.
.	.	.	.	.	.	.	.	.	.	16cc	-te-
8CJ	.	8C	Che	8G	Che	.	.	8e	Che	8cc	-ne
4C	.	4C	la-	4G	la-	.	.	4e	la-	4.cc	pur,
4AA	6	4AA	-sci a	4A	-sci a	.	.	4f	-sci a	.	.
.	.	.	.	.	.	.	.	.	.	8cc	cru-
=5	=5	=5	=5	=5	=5	=5	=5	=5	=5	=5	=5
1D	#	1D	me.	1A	me	4r	.	1d	me	8f#i	-del,>
.	.	.	.	.	.	.	.	.	.	8.a	<Va-
.	.	.	.	.	.	4A	con	.	.	.	.
.	.	.	.	.	.	.	.	.	.	16a	-te-
.	.	.	.	.	.	.	.	.	.	8a	-ne
.	.	.	.	.	.	4F#i	quel-	.	.	4.a	pur
.	.	.	.	.	.	4F#X	-la	.	.	.	.
.	.	.	.	.	.	.	.	.	.	8a	cru-
=6	=6	=6	=6	=6	=6	=6	=6	=6	=6	=6	=6
2BBnX	.	1r	.	1r	.	4G	pa-	1r	.	1d	-del>
.	.	.	.	.	.	8G	-ce	.	.	.	.
.	.	.	.	.	.	8G	Che	.	.	.	.
2D	#	.	.	.	.	4G	la-	.	.	.	.
.	.	.	.	.	.	4F#X	-sci a	.	.	.	.
=7	=7	=7	=7	=7	=7	=7	=7	=7	=7	=7	=7
1GG	#	1r	.	1r	.	1G	me:	1r	.	4r	.
.	.	.	.	.	.	.	.	.	.	4dd	con
.	.	.	.	.	.	.	.	.	.	4bnXi	quel-
.	.	.	.	.	.	.	.	.	.	4bnX	-la
=8	=8	=8	=8	=8	=8	=8	=8	=8	=8	=8	=8
2C	.	1r	.	1r	.	1r	.	1r	.	4cc	pa-
.	.	.	.	.	.	.	.	.	.	8cc	-ce
.	.	.	.	.	.	.	.	.	.	8cc	Che
2F	.	.	.	.	.	.	.	.	.	4.cc	la-
.	.	.	.	.	.	.	.	.	.	8b-y	-sci a
=9	=9	=9	=9	=9	=9	=9	=9	=9	=9	=9	=9
2BB-y	.	1r	.	1r	.	1r	.	1r	.	4dd	me:
.	.	.	.	.	.	.	.	.	.	4.b-y	va-
2GG	.	.	.	.	.	.	.	.	.	.	.
.	.	.	.	.	.	.	.	.	.	8a	-te-
.	.	.	.	.	.	.	.	.	.	4g	-ne,
=10	=10	=10	=10	=10	=10	=10	=10	=10	=10	=10	=10
2AA	.	1r	.	1r	.	1r	.	1r	.	4.cc	<va-
.	.	.	.	.	.	.	.	.	.	8b-y	-te-
2D	.	.	.	.	.	.	.	.	.	4a	-ne,>
.	.	.	.	.	.	.	.	.	.	[4dd	<va-
=11	=11	=11	=11	=11	=11	=11	=11	=11	=11	=11	=11
2G	.	1r	.	1r	.	1r	.	1r	.	8dd]	.
.	.	.	.	.	.	.	.	.	.	8cc	-te-
.	.	.	.	.	.	.	.	.	.	4b-y	-ne,> i-
2F	.	.	.	.	.	.	.	.	.	4b-y	-ni-
.	.	.	.	.	.	.	.	.	.	4a	-quo, ho-
=12	=12	=12	=12	=12	=12	=12	=12	=12	=12	=12	=12
1BB-y	.	1r	.	1r	.	1r	.	1r	.	2b-y	-ma-
.	.	.	.	.	.	.	.	.	.	2b-y	-i;
=13	=13	=13	=13	=13	=13	=13	=13	=13	=13	=13	=13
1C	.	1r	.	1r	.	1r	.	4g	Me	1r	.
.	.	.	.	.	.	.	.	4.e	to-	.	.
.	.	.	.	.	.	.	.	8e	-sto i-	.	.
.	.	.	.	.	.	.	.	8e	-gnu-	.	.
.	.	.	.	.	.	.	.	8e	-do	.	.
=14	=14	=14	=14	=14	=14	=14	=14	=14	=14	=14	=14
2D	.	1r	.	1r	.	2r	.	4.f	spir-	2r	.
.	.	.	.	.	.	.	.	8f	-to, om-	.	.
4D	.	.	.	.	.	4d	Me	8f	-bra	8r	.
.	.	.	.	.	.	.	.	8e	se-	8.dd	Va-
4GG	#	.	.	.	.	[4BnXi	to-	4d	-gua-	.	.
.	.	.	.	.	.	.	.	.	.	16dd	-te-
.	.	.	.	.	.	.	.	.	.	8dd	-ne
=15	=15	=15	=15	=15	=15	=15	=15	=15	=15	=15	=15
2GG	.	1r	.	4r	.	8B]	.	4.d	-ce	4.dd	pur,
.	.	.	.	.	.	8BnX	-sto i-	.	.	.	.
.	.	.	.	4G	Me	8BnXi	-gnu-	.	.	.	.
.	.	.	.	.	.	8A	-do	8d	In-	8dd	cru-
2C	.	.	.	4.E	to-	4.c	spir-	8e	-di-	2g	-del,
.	.	.	.	.	.	.	.	8f	-vi-	.	.
.	.	.	.	.	.	.	.	8g	-si-	.	.
.	.	.	.	8E	-sto i-	8c	-to, om-	8g	-bil-	.	.
=16	=16	=16	=16	=16	=16	=16	=16	=16	=16	=16	=16
4C	.	4C	Me	8E	-gnu-	8G	-bra	4e	-men-	8r	.
.	.	.	.	8E	-do	8F	se-	.	.	8.cc	<Va-
2AA	.	4.AA	to-	4.F	spir-	4A	-gua-	4c	-te,	.	.
.	.	.	.	.	.	.	.	.	.	16cc	-te-
.	.	.	.	.	.	.	.	.	.	8cc	-ne
.	.	.	.	.	.	8A	-ce	2r	.	4.cc	pur,
.	.	8AA	-sto i-	8F	-to, om-	8A	In-	.	.	.	.
4AA	.	8AA	-gnu-	8F	-bra	8B-y	-di-	.	.	.	.
.	.	8AA	-do	8E	se-	8c	-vi-	.	.	8cc	cru-
=17	=17	=17	=17	=17	=17	=17	=17	=17	=17	=17	=17
4.BB-y	.	8BB-y	spir-	8D	-gua-	8d	-si-	8r	.	2f	-del>,
.	.	8BB-y	-to, om-	16D	-ce	8d	-bil-	8F	In-	.	.
.	.	.	.	16D	In-	.	.	.	.	.	.
.	.	8BB-y	-bra	8E	-di-	2d	-men-	8G	-di-	.	.
8AA	.	8AA	se-	8F	-vi-	.	.	8A	-vi-	.	.
2GG	.	2GG	-gua-	8G	-si-	.	.	8B-y	-si-	2r	.
.	.	.	.	8G	-bil-	.	.	8c	-bil-	.	.
.	.	.	.	[4G	-men-	4B-y	-te a	[4d	-men-	.	.
=18	=18	=18	=18	=18	=18	=18	=18	=18	=18	=18	=18
2D	#	2D	-ce	4G]	.	4A	ter-	4d]	.	8r	.
.	.	.	.	.	.	.	.	.	.	8.a	<Va-
.	.	.	.	4F#X	-te a	4A	-go ha-	4d	-te a	.	.
.	.	.	.	.	.	.	.	.	.	16a	-te-
.	.	.	.	.	.	.	.	.	.	8a	-ne
4D	.	8r	.	4A	ter-	4D	-vra-	4f#i	ter-	4.a	pur,
.	.	8D	In-	.	.	.	.	.	.	.	.
8EL	.	8E	-di-	4d	-go ha-	4D	-i,	4a	-go ha-	.	.
8F#iJ	.	8F#i	-vi-	.	.	.	.	.	.	8a	cru-
=19	=19	=19	=19	=19	=19	=19	=19	=19	=19	=19	=19
4G	.	8G	-si-	4B-y	-vra-	2r	.	8g	-vrai,	2d	-del>,
.	.	8G	-bil-	.	.	.	.	8d	< In-	.	.
2G	.	2G	-men-	4G	-i,	.	.	8e	-di-	.	.
.	.	.	.	.	.	.	.	8f#i	-vi-	.	.
.	.	.	.	2r	.	8r	.	8g	-si-	4r	.
.	.	.	.	.	.	8B-y	In-	8g	-bil-	.	.
4G	.	4G	-te a	.	.	8c	-di-	[4g	-men-	[4b-y	va-
.	.	.	.	.	.	8d	-vi-	.	.	.	.
=20	=20	=20	=20	=20	=20	=20	=20	=20	=20	=20	=20
2E-X	.	2E-X	ter-	4r	.	8e-X	-si-	4g]	.	8b-]	.
.	.	.	.	.	.	8e-i	-bil-	.	.	8a	-te-
.	.	.	.	4B-y	a	8.e-i	-men-	4g	-te a	4g	-ne,
.	.	.	.	.	.	16G	-te a	.	.	.	.
2C	.	2C	-go ha-	4c	ter-	4.G	ter-	4e-X	ter-	4.cc	<va-
.	.	.	.	4G	-go hav-	.	.	4e-i	-go ha-	.	.
.	.	.	.	.	.	8A	-go ha-	.	.	8cc	-te-
=21	=21	=21	=21	=21	=21	=21	=21	=21	=21	=21	=21
2D	#	2D	-vra-	2F#X	-ra-	2A	-vra-	2d	-vra-	4a	-ne,>
.	.	.	.	.	.	.	.	.	.	4.dd	<va-
2GG	.	2GG	-i.	2G	-i.	2G	-i.	2d	-i.>	.	.
.	.	.	.	.	.	.	.	.	.	8cc	-te-
.	.	.	.	.	.	.	.	.	.	4b-y	-ne,> i-
=22	=22	=22	=22	=22	=22	=22	=22	=22	=22	=22	=22
2FF	.	1r	.	1r	.	1r	.	1r	.	4b-y	-ni-
.	.	.	.	.	.	.	.	.	.	4a	-quo, ho-
4BB-y	.	.	.	.	.	.	.	.	.	4b-y	-ma-
4C	.	.	.	.	.	.	.	.	.	8g	-i;
.	.	.	.	.	.	.	.	.	.	8g	Me
=23	=23	=23	=23	=23	=23	=23	=23	=23	=23	=23	=23
4FF	.	1r	.	1r	.	1r	.	1r	.	8.cc	to-
.	.	.	.	.	.	.	.	.	.	16b-y	-sto i-
4BB-y	.	.	.	.	.	.	.	.	.	8.b-y	-gnu-
.	.	.	.	.	.	.	.	.	.	16a	-do
2F	.	.	.	.	.	.	.	.	.	4a	spir-
.	.	.	.	.	.	.	.	.	.	4a	-to,
=24	=24	=24	=24	=24	=24	=24	=24	=24	=24	=24	=24
4C	.	1r	.	1r	.	1r	.	1r	.	8r	.
.	.	.	.	.	.	.	.	.	.	8cc	om-
4G	#	.	.	.	.	.	.	.	.	8cc	-bra
.	.	.	.	.	.	.	.	.	.	8bnX	se-
4C	.	.	.	.	.	.	.	.	.	4cc	-gua-
4F	.	.	.	.	.	.	.	.	.	8cc	-ce
.	.	.	.	.	.	.	.	.	.	8a	In-
=25	=25	=25	=25	=25	=25	=25	=25	=25	=25	=25	=25
4BB-y	.	1r	.	1r	.	1r	.	1r	.	8dd	-di-
.	.	.	.	.	.	.	.	.	.	8cc	-vi-
2C	-	.	.	.	.	.	.	.	.	8ee-X	-si-
.	.	.	.	.	.	.	.	.	.	8dd	-bil-
.	.	.	.	.	.	.	.	.	.	8cc	-men-
.	.	.	.	.	.	.	.	.	.	8b-y	-te a
4C	.	.	.	.	.	.	.	.	.	8a	ter-
.	.	.	.	.	.	.	.	.	.	8g	-go ha-
=26	=26	=26	=26	=26	=26	=26	=26	=26	=26	=26	=26
2D	#	1r	.	2r	.	1r	.	1r	.	4g	-vra-
.	.	.	.	.	.	.	.	.	.	4f#X	.
2G	.	.	.	4r	.	.	.	.	.	2g	-i.
.	.	.	.	4B-y	No-	.	.	.	.	.	.
=27	=27	=27	=27	=27	=27	=27	=27	=27	=27	=27	=27
4F	.	4F	No-	4A	-va	1r	.	2r	.	2r	.
4E	.	4E	-va	4c	fu-	.	.	.	.	.	.
4G	.	4G	fu-	8B-y	-ria	.	.	4r	.	4b-y	No-
.	.	.	.	8B-y	co’	.	.	.	.	.	.
4F	6	8F	-ria	8d	ser-	.	.	4f	No-	4a	-va
.	.	8F	co’	8d	-pi e	.	.	.	.	.	.
=28	=28	=28	=28	=28	=28	=28	=28	=28	=28	=28	=28
4A	.	8A	ser-	8c	con	1r	.	4e	-va	4cc	fu-
.	.	8A	-pi e	8c	la	.	.	.	.	.	.
4G	6	8G	con	4e-X	fa-	.	.	4g	fu-	8b-y	-ria
.	.	8G	la	.	.	.	.	.	.	8b-y	co'
4B-y	.	4B-y	fa-	4d	-ce,	.	.	8f	-ria	8dd	ser-
.	.	.	.	.	.	.	.	8f	co'	8dd	-pi e
4A	.	4A	-ce,	4r	.	.	.	8a	ser-	8cc	con
.	.	.	.	.	.	.	.	8a	-pi e	8a	la
=29	=29	=29	=29	=29	=29	=29	=29	=29	=29	=29	=29
4B-y	.	1r	.	4r	.	4B-y	No-	8g	con	4dd	fa-
.	.	.	.	.	.	.	.	8f	la	.	.
4F	.	.	.	4F	<No-	4A	-va	4a	fa-	4cc	-ce,
4E	.	.	.	4E	-va	4c	fu-	4g	-ce,	4r	.
4G	.	.	.	4G	fu-	8B-y	-ria	4r	.	4b-y	<No-
.	.	.	.	.	.	8B-y	co’	.	.	.	.
=30	=30	=30	=30	=30	=30	=30	=30	=30	=30	=30	=30
4F	6	2r	.	8F	-ria	8d	ser-	4f	<No-	4a	-va
.	.	.	.	8F	co’	8d	-pi e	.	.	.	.
4A	.	.	.	8A	ser-	8c	con	4e	-va	4cc	fu-
.	.	.	.	8A	-pi e	8c	la	.	.	.	.
4G	6	4r	.	8G	con	4e-X	fa-	4g	fu-	8b-y	-ria
.	.	.	.	8G	la	.	.	.	.	8b-y	co'
4D	6	4D	<No-	4B-y	fa-	4d	-ce,	8f	-ria	8dd	ser-
.	.	.	.	.	.	.	.	8f	co'	8dd	-pi e
=31	=31	=31	=31	=31	=31	=31	=31	=31	=31	=31	=31
4F	.	4F	-va	4A	-ce,>	2r	.	8a	ser-	4.cc	con
.	.	.	.	.	.	.	.	8a	-pi e	.	.
4E	.	4E	fu-	4c	<No-	.	.	8g	con	.	.
.	.	.	.	.	.	.	.	8g	la	8g	la
4G	.	8G	-ria	4B-y	-va	4B-y	<No-	8d	fa-	4g	fa-
.	.	8G	co’	.	.	.	.	8d	-ce>,	.	.
4F	6	8F	ser-	4d	fu-	4A	-va	4f	<No-	4a	-ce>,
.	.	8F	-pi e	.	.	.	.	.	.	.	.
=32	=32	=32	=32	=32	=32	=32	=32	=32	=32	=32	=32
4A	.	8A	con	8c	-ria	4c	fu-	4e	-va	2r	.
.	.	8A	la	8c	co’	.	.	.	.	.	.
4G	-6	4G	fa-	8e-X	ser-	8B-y	-ria	4g	fu-	.	.
.	.	.	.	8e-i	-pi e	8B-y	co’	.	.	.	.
4B-y	.	4B-y	-ce>,	8d	con	8B-y	ser-	4f	-ria	4f	<No-
.	.	.	.	8c	la	8c	-pi e	.	.	.	.
4BB-y	.	4BB-y	co’	4B-y	fa-	8d	con	4f	co'	4b-y	-va
.	.	.	.	.	.	8d	la	.	.	.	.
=33	=33	=33	=33	=33	=33	=33	=33	=33	=33	=33	=33
4D	.	8D	ser-	4F	-ce,>	4d	fa-	8d	ser-	4a	fu-
.	.	8D	-pi e	.	.	.	.	8d	-pi e	.	.
4C	-	8C	con	4G	e	4G	-ce,>	8e-X	con	8cc	-ria
.	.	8C	la	.	.	.	.	8e-i	la	8cc	co'
2E-X	6	2E-X	fa-	4.G	con	2r	.	(>4B-y	fa-	8g	ser-
.	.	.	.	.	.	.	.	.	.	8a	-pi e
.	.	.	.	.	.	.	.	4c)	.	8b-y	con
.	.	.	.	8G	la	.	.	.	.	8g	la
=34	=34	=34	=34	=34	=34	=34	=34	=34	=34	=34	=34
1D	#	1D	-ce	1A	fa-	4r	.	1d	-ce>	2g	fa-
.	.	.	.	.	.	4D	e	.	.	.	.
.	.	.	.	.	.	8d	con	.	.	2f#i	.
.	.	.	.	.	.	8A	la	.	.	.	.
.	.	.	.	.	.	4A	fa-	.	.	.	.
=35	=35	=35	=35	=35	=35	=35	=35	=35	=35	=35	=35
1GG	#	1r	.	1G	-ce	1BnX	-ce	1r	.	1g	-ce>
=36	=36	=36	=36	=36	=36	=36	=36	=36	=36	=36	=36
!!LO:TX:a:t=[half]&rarr;[half-dot]
*M6/4	*	*M6/4	*	*M6/4	*	*M6/4	*	*M6/4	*	*M6/4	*
1BB-y	.	1.r	.	1.r	.	1.r	.	1.r	.	2dd	Tan-
.	.	.	.	.	.	.	.	.	.	4b-y	-to
.	.	.	.	.	.	.	.	.	.	4dd	t’a-
2C	.	.	.	.	.	.	.	.	.	4cc	-gi-
.	.	.	.	.	.	.	.	.	.	4b-y	-te-
=37	=37	=37	=37	=37	=37	=37	=37	=37	=37	=37	=37
1D	.	1.r	.	1.r	.	1.r	.	2a	Tan-	1a	-rò,
.	.	.	.	.	.	.	.	4f	-to	.	.
.	.	.	.	.	.	.	.	4a	t’a-	.	.
2GG	.	.	.	.	.	.	.	4g	-gi-	2r	.
.	.	.	.	.	.	.	.	4f	-te-	.	.
=38	=38	=38	=38	=38	=38	=38	=38	=38	=38	=38	=38
1AA	.	1.r	.	1.r	.	1.r	.	1e	-rò,	2cc	<Tan-
.	.	.	.	.	.	.	.	.	.	4a	-to
.	.	.	.	.	.	.	.	.	.	4cc	t’a-
2BB-y	.	.	.	.	.	.	.	2r	.	4b-y	-gi-
.	.	.	.	.	.	.	.	.	.	4a	-te-
=39	=39	=39	=39	=39	=39	=39	=39	=39	=39	=39	=39
1C	.	1.r	.	1.r	.	1.r	.	2g	<Tan-	1g	-rò,>
.	.	.	.	.	.	.	.	4e	-to	.	.
.	.	.	.	.	.	.	.	4g	t’a-	.	.
2FF	.	.	.	.	.	.	.	4f	-gi-	2r	.
.	.	.	.	.	.	.	.	4e	-te-	.	.
=40	=40	=40	=40	=40	=40	=40	=40	=40	=40	=40	=40
1BB-y	.	1.r	.	1.r	.	1.r	.	1d	-rò>	2dd	<Tan-
.	.	.	.	.	.	.	.	.	.	4b-y	-to
.	.	.	.	.	.	.	.	.	.	4dd	t’a-
2C	.	.	.	.	.	.	.	2e	quan-	4cc	-gi-
.	.	.	.	.	.	.	.	.	.	4b-y	-te-
=41	=41	=41	=41	=41	=41	=41	=41	=41	=41	=41	=41
2FF	.	1.r	.	1.r	.	1.r	.	2f	-to	2a	-rò>
2GG	.	.	.	.	.	.	.	1d	t’a-	2g	quan-
2BB-y	.	.	.	.	.	.	.	.	.	2f	-to
=42	=42	=42	=42	=42	=42	=42	=42	=42	=42	=42	=42
2GG	.	1.r	.	1.r	.	1.r	.	1d	-ma-	2g	t’a-
1AA	#	.	.	.	.	.	.	.	.	1e	-ma-
.	.	.	.	.	.	.	.	2c#X	.	.	.
=43	=43	=43	=43	=43	=43	=43	=43	=43	=43	=43	=43
1BB-y	.	1.r	.	1.r	.	2d	Tan-	1d	-i.	1d	-i.
.	.	.	.	.	.	4B-y	-to	.	.	.	.
.	.	.	.	.	.	4d	t’a-	.	.	.	.
2C	.	.	.	.	.	4c	-gi-	2r	.	2r	.
.	.	.	.	.	.	4B-y	-te-	.	.	.	.
=44	=44	=44	=44	=44	=44	=44	=44	=44	=44	=44	=44
1D	.	1.r	.	2A	Tan-	1A	-rò,	1.r	.	1.r	.
.	.	.	.	4F	-to	.	.	.	.	.	.
.	.	.	.	4A	t’a-	.	.	.	.	.	.
2GG	.	.	.	4G	-gi-	2r	.	.	.	.	.
.	.	.	.	4F	-te-	.	.	.	.	.	.
=45	=45	=45	=45	=45	=45	=45	=45	=45	=45	=45	=45
1AA	.	1.r	.	1E	-rò,	2c	<Tan-	1.r	.	1.r	.
.	.	.	.	.	.	4A	-to	.	.	.	.
.	.	.	.	.	.	4c	t’a-	.	.	.	.
2BB-y	.	.	.	2r	.	4B-y	-gi-	.	.	.	.
.	.	.	.	.	.	4A	-te-	.	.	.	.
=46	=46	=46	=46	=46	=46	=46	=46	=46	=46	=46	=46
1C	.	2G	Tan-	1.r	.	1G	-rò,>	1.r	.	1.r	.
.	.	4E	-to	.	.	.	.	.	.	.	.
.	.	4G	t'a-	.	.	.	.	.	.	.	.
2F	.	4F	-gi-	.	.	2r	.	.	.	.	.
.	.	4E	-te-	.	.	.	.	.	.	.	.
=47	=47	=47	=47	=47	=47	=47	=47	=47	=47	=47	=47
1D	.	1D	-rò	2d	<Tan-	2f	<Tan-	1.r	.	1.r	.
.	.	.	.	4B-y	-to	4d	-to	.	.	.	.
.	.	.	.	4d	t’a-	4f	t’a-	.	.	.	.
2E-X	.	2r	.	4c	-gi-	4e-X	-gi-	.	.	.	.
.	.	.	.	4B-y	-te-	4d	-te-	.	.	.	.
=48	=48	=48	=48	=48	=48	=48	=48	=48	=48	=48	=48
1F	.	1.r	.	1A	-rò>	1c	-rò>	1.r	.	1.r	.
2G	.	.	.	2G	quan-	2B-y	quan-	.	.	.	.
=49	=49	=49	=49	=49	=49	=49	=49	=49	=49	=49	=49
1E-X	.	1.r	.	1G	-to	1B-y	-to	1.r	.	1.r	.
2C	.	.	.	2G	t’a-	2c	t’a-	.	.	.	.
=50	=50	=50	=50	=50	=50	=50	=50	=50	=50	=50	=50
1.D	#	1.r	.	1G	-ma-	1.A	-ma-	1.r	.	1.r	.
.	.	.	.	2F#X	.	.	.	.	.	.	.
=51	=51	=51	=51	=51	=51	=51	=51	=51	=51	=51	=51
!!LO:TX:a:t=[half-dot]&rarr;[half]
*M4/4	*	*M4/4	*	*M4/4	*	*M4/4	*	*M4/4	*	*M4/4	*
1GG	.	1r	.	1G	-i.	1G	-i.	1r	.	1r	.
=52	=52	=52	=52	=52	=52	=52	=52	=52	=52	=52	=52
4BB-y	.	8r	.	8r	.	8r	.	8r	.	8r	.
.	.	8BB-y	E	8B-y	E	8d	E	8f	E	8b-y	E
8BB-yL	.	8BB-yL	s'è	8B-y	s’è	8d	s’è	8f	s’è	8b-y	s’è
8BB-yJ	.	8BB-yJ	de-	8F	de-	8d	de-	8f	de-	8b-y	de-
4F	.	4F	-stin	2A	-stin	4c	-stin	8f	-stin	4a	-stin
.	.	.	.	.	.	.	.	8f	ch’e-	.	.
4F	.	4F	ch'e-	.	.	4c	ch’e-	8f	-sca	4a	ch’e-
.	.	.	.	.	.	.	.	8f	del	.	.
=53	=53	=53	=53	=53	=53	=53	=53	=53	=53	=53	=53
4F	.	8FL	-sca	1r	.	8c	-sca	4f	mar,	8a	-sca
.	.	8FJ	del	.	.	8c	del	.	.	8a	del
2F	.	2F	mar,	.	.	2c	mar,	4c	che	2a	mar,
.	.	.	.	.	.	.	.	4f	schi-	.	.
4G	#	4G	che	.	.	4BnX	che	4d	-vi	4g	che
=54	=54	=54	=54	=54	=54	=54	=54	=54	=54	=54	=54
2C	.	4C	schi-	4r	.	4c	schi-	4e	Gli	4g	schi-
.	.	4C	-vi	4G	Gli	4c	-vi	8.g	sco-	4g	-vi
.	.	.	.	.	.	.	.	16f	-gli e	.	.
4C	.	2r	.	8.c	sco-	2r	.	8e	l’on-	8r	.
.	.	.	.	.	.	.	.	8e	-de, e	8g	Gli
.	.	.	.	16B-y	-gli e	.	.	.	.	.	.
4AA	.	.	.	8A	l’on-	.	.	8a	che a	8.cc	sco-
.	.	.	.	8A	-de, e	.	.	8g	la	.	.
.	.	.	.	.	.	.	.	.	.	16b-y	-gli e
=55	=55	=55	=55	=55	=55	=55	=55	=55	=55	=55	=55
4D	.	2r	.	8d	che a	1r	.	8f	pu-	4a	l’on-
.	.	.	.	8c	la	.	.	8e	-gna ar-	.	.
4BB-y	.	.	.	8B-y	pu-	.	.	2d	-ri-	4dd	-de,
.	.	.	.	8A	-gna ar-	.	.	.	.	.	.
4GG	.	4r	.	2G	-ri-	.	.	.	.	8r	.
.	.	.	.	.	.	.	.	.	.	8g	Gli
4C	.	4C	Gli	.	.	.	.	4e	-vi,	8.cc	sco-
.	.	.	.	.	.	.	.	.	.	16b-y	-gli e
=56	=56	=56	=56	=56	=56	=56	=56	=56	=56	=56	=56
4F	.	8.FL	sco-	2A	-vi,	4r	.	4c	<Gli	8a	l’on-
.	.	.	.	.	.	.	.	.	.	8a	-de e
.	.	16EJ	gli e	.	.	.	.	.	.	.	.
4D	.	8DL	l'on-	.	.	4A	Gli	8.f	sco-	8dd	che a
.	.	8DJ	de, e	.	.	.	.	.	.	8cc	la
.	.	.	.	.	.	.	.	16e	-gli e	.	.
8GL	#	8GL	che a	4r	.	8BnXi	sco-	8d	l’on-	8bnXi	pu-
8FJ	.	8FJ	la	.	.	8BnXi	-gli e	8d	-de, e	8a	-gna ar-
8EL	.	8EL	pu-	4G	e	[4c	l’on-	8g	che a	4g	-ri-
8DJ	.	8DJ	gna ar-	.	.	.	.	8f	la	.	.
=57	=57	=57	=57	=57	=57	=57	=57	=57	=57	=57	=57
*	*	*lig	*	*	*	*	*	*	*	*	*
1C	.	1C	-ri-	4.c	che a	8c]	.	8e-X	pu-	8g	-vi,
.	.	.	.	.	.	8B-y	-de, e	8d	-gna ar-	8g	e
.	.	.	.	.	.	8A	che a	4e-i	-ri-	4.cc	che a
.	.	.	.	8d	la	8G	la	.	.	.	.
.	.	.	.	4e-X	pu-	4.c	pu-	2c	-vi>,	.	.
.	.	.	.	.	.	.	.	.	.	8b-y	la
.	.	.	.	4e-i	-gna ar-	.	.	.	.	8a	pu-
.	.	.	.	.	.	8B-y	-gna ar-	.	.	8g	-gna ar-
=58	=58	=58	=58	=58	=58	=58	=58	=58	=58	=58	=58
1D	#	1D	.	4d	-ri-	4A	-ri-	4r	.	4f#X	-ri-
*	*	*Xlig	*	*	*	*	*	*	*	*	*
.	.	.	.	8cL	.	4G	.	4G	ar-	2g	.
.	.	.	.	8B-yJ	.	.	.	.	.	.	.
.	.	.	.	2A	.	2A	.	2d	-ri-	.	.
.	.	.	.	.	.	.	.	.	.	4f#X	.
=59	=59	=59	=59	=59	=59	=59	=59	=59	=59	=59	=59
2GG	.	2GG	-vi,	2G	-vi,	2BnXi	-vi,	2d	-vi,	2g	-vi,
4G	.	8r	.	8r	.	8r	.	8r	.	8r	.
.	.	8G	E	8G	E	8d	E	8g	E	8b-y	E
8GL	.	8GL	s'è	8B-y	s’è	8d	s’è	8g	s’è	8b-y	s’è
8GJ	.	8GJ	de-	8B-y	de-	8d	de-	8g	de-	8b-y	de-
=60	=60	=60	=60	=60	=60	=60	=60	=60	=60	=60	=60
4G	.	4G	-stin	4G	-stin	4d	-stin	4g	-stin	4b-y	-stin
4D	#	4D	ch'e-	4A	ch’e-	4d	ch’e-	4f#X	ch’es-	4a	ch’es-
4G	.	8GL	sca	8B-y	-sca	8d	-sca	8g	-ca	8g	-ca
.	.	8GJ	del	8B-y	del	8d	del	8g	del	8b-y	del
[4E-X	.	[4E-X	mar,	[4B-y	mar,	[4e-X	mar,	[4g	mar,	4b-y	mar,
=61	=61	=61	=61	=61	=61	=61	=61	=61	=61	=61	=61
4E-]	6	4E-]	.	4B-]	.	4e-]	.	4g]	.	2cc	che
4F	.	4F	che	4A	che	4c	che	4f	che	.	.
2BB-y	.	2BB-y	schi-	2B-y	schi-	2d	schi-	[2f	schi-	4b-y	schi-
.	.	.	.	.	.	.	.	.	.	8b-y	-vi
.	.	.	.	.	.	.	.	.	.	8b-y	Gli
=62	=62	=62	=62	=62	=62	=62	=62	=62	=62	=62	=62
2BB-y	.	2BB-y	vi	2F	-vi	2d	-vi	4f]	.	8.dd	sco-
.	.	.	.	.	.	.	.	.	.	16cc	-gli e
.	.	.	.	.	.	.	.	4d	-vi	8b-y	l’on-
.	.	.	.	.	.	.	.	.	.	8f	-de, e
2GG	.	4r	.	4D	Gli	2r	.	4r	.	8g	che a
.	.	.	.	.	.	.	.	.	.	8a	la
.	.	4GG	Gli	8.G	sco-	.	.	4d	Gli	8b-y	pu-
.	.	.	.	.	.	.	.	.	.	8a	-gna ar-
.	.	.	.	16F	-gli e	.	.	.	.	.	.
=63	=63	=63	=63	=63	=63	=63	=63	=63	=63	=63	=63
4C	.	8.CL	sco-	8E	l’on-	4G	Gli	8.e	sco-	4g	-ri-
.	.	.	.	8E	-de, e	.	.	.	.	.	.
.	.	16BB-yJ	gli e	.	.	.	.	16d	-gli e	.	.
4AA	.	8AAL	l'on-	8A	che a	8.c	sco-	4c	l’on-	4a	-vi,
.	.	8AAJ	-de, e	8G	la	.	.	.	.	.	.
.	.	.	.	.	.	16B-y	-gli e	.	.	.	.
8DL	.	8DL	che a	8F	pu-	8A	l’on-	8d	-de,	4r	.
8CJ	.	8CJ	la	8E	-gna ar-	8A	-de, e	8A	Gli	.	.
8BB-yL	.	8BB-yL	pu-	4D	-ri-	8d	che a	8B-y	sco-	4d	<Gli
8AAJ	.	8AAJ	gna ar-	.	.	8c	la	8c	-gli e	.	.
=64	=64	=64	=64	=64	=64	=64	=64	=64	=64	=64	=64
*	*	*lig	*	*	*	*	*	*	*	*	*
1GG	.	1GG	ri-	4D	-vi,	8B-y	pu-	8d	l’on-	4.g	sco-
.	.	.	.	.	.	8A	-gna ar-	8d	-de, e	.	.
.	.	.	.	4D	e	4G	-ri-	4.g	che a	.	.
.	.	.	.	.	.	.	.	.	.	8f	-gli e
.	.	.	.	4.G	che a	4G	-vi,	.	.	8e	l’on-
.	.	.	.	.	.	.	.	8f	la	8d	-de, e
.	.	.	.	.	.	8r	.	8e	pu-	8c#i	che a
.	.	.	.	8F	la	8B-y	ar-	8d	-gna ar-	8d	la
=65	=65	=65	=65	=65	=65	=65	=65	=65	=65	=65	=65
1AA	#	1AA	.	4E	pu-	1A	-ri-	4c#X	-ri-	4a	pu-
*	*	*Xlig	*	*	*	*	*	*	*	*	*
.	.	.	.	4D	-gna ar-	.	.	2d	.	4f	-gna ar-
.	.	.	.	2E	-ri-	.	.	.	.	2e	-ri-
.	.	.	.	.	.	.	.	4c#X	.	.	.
=66	=66	=66	=66	=66	=66	=66	=66	=66	=66	=66	=66
1Dl	.	1Dl	vi.	1Dl	-vi.	1Al	-vi.	1dl	-vi.	1f#Xl	-vi>.
==	==	==	==	==	==	==	==	==	==	==	==
*-	*-	*-	*-	*-	*-	*-	*-	*-	*-	*-	*-
!!!system-decoration: [(s1)(s2)(s3)(s4)(s5)]s6
!!!RDF**kern: > = above
!!!RDF**kern: i = editorial accidental
!!!RDF**kern: l = terminal long
!!!ENC: Emiliano Ricciardi
!!!END: 2019
!!!EED: Mazzetti, Marcello; Ticli, Livio
!!!EEV: 2019/06/12
!!!YEC: Copyright 2018 Emiliano Ricciardi, All Rights Reserved
!!!ONB: Translated from MusicXML on 2019/06/12
!!@@BEGIN:	VERSEDATA
!!@CATALOGNUM:	Tsg16059
!!@LAST_MODIFIED: 2020/07/12
!!@TITLE:		Vattene pur, crudel, con quella pace
!!@CANTO:		XVI
!!@OTTAVA:	59
!!@MANUSRC:	G-Al, G-Au, G-Br<sub>1</sub>, G-Br<sub>2</sub>, G-Cv, G-Es<sub>1</sub>, G-Es<sub>2</sub>, G-Es<sub>3</sub>, G-F, G-Fr, G-Fr<sub>1</sub>, G-Fr<sub>2</sub>, G-Mc<sub>1</sub>, G-Mg, G-Mr, G-Mt, G-N, G-Ol
!!@PRINTSRC:	G-1580CM, G-1581B, G-1581CV, G-1581R, G-1581MR, G-1581P, G-1581V, G-1581V<sub>bis</sub>, G-1582C, G-1582M, G-1582MC, G-1582P, G-1582SC, G-1582SC<sub>bis</sub>, G-1583S, G-1584O, G-1584S, G-1585C, G-1585S, G-1588S, G-1589S, G-1590B, G-1590S, G-1592S, G-1593S, G-1594C, G-1595C, G-1597C, G-1598C, G-1599C, G-1600C, G-1600S, G-1601C, G-1601R, G-1602C, G-1604C, G-1604Cl, G-1604F, G-1604P, G-1606B, G-1606B<sub>bis</sub>, G-1606L, G-1607ZR, G-1608DP, G-1609GC, G-1610M, G-1611S, G-1611V, G-1612P, G-1613M, G-1613P, G-1613V, G-1615P, G-1616M, G-1617P, G-1619B, G-1619V, G-1620M, G-1620S, G-1621R, G-1624I, G-1624MT, G-1625C, G-1625S, G-1625SS, G-1626C, G-1626Co, G-1627M, G-1628T, G-1628Tu, G-1630L, G-1630T, G-1632FT, G-1639CF, G-1642M, G-1643I, G-1644P, G-1644S
!!@@BEGIN:	VERSES
!!@ABOUTIT:
!!@ABOUTEN:
!!@EDITOR:	Angelo Solerti
!!@EDITION_TITLE: Gerusalemme liberata. Poema eroico di Torquato Tasso. Edizione critica sui manoscritti e le prime stampe.
!!@EDITION_LOC:	Florence
!!@EDITION_PUB:	G. Barbera
!!@EDITION_DATE:  1895
!!@EDITION_VOL:
!!@EDITION_PAGE:
!!@TRANSLATOR:	Emiliano Ricciardi and Amyrose McCue Gill
!!@VERSE:
!!	Vattene pur, crudel, con quella pace
!!	Che lasci a me: vattene, iniquo, omai;
!!	Me tosto ignudo spirto, ombra seguace
!!	Indivisibilmente a tergo avrai.
!!	Nuova furia co’ serpi e con la face
!!	Tanto t’agiterò quanto t’amai.
!!	E s’è destin ch’esca del mar, che schivi
!!	Gli scogli e l’onde, e ch’alla pugna arrivi:
!!@TVERSE:
!!	Begone then, cruel man, with that peace
!!	Which you leave to me: begone already, wicked man;
!!	At once my naked breath—a shadow following
!!	Inseparably at your back—shall you have.
!!	A new fury with vipers and with a blaze
!!	I will torment you as much as I loved you.
!!	And if it is destiny that you emerge from the sea, that you avoid
!!	The rocks and the waves, and that to battle you come:
!!@@END:		VERSES
!!@OTHER_CRIT_ED:  Torquato Tasso, <i>Gerusalemme liberata</i>, ed. Lanfranco Caretti, 2 vols. (Bari: Laterza, 1967).
!!@ATTRIBUTION_ABOUT:
!!@DATING:	mid-1560s through 1570s
!!@DEDICATEE:	Duke Alfonso II d'Este
!!@COMMENTARY:
!!@@END:		VERSEDATA
!!@@BEGIN: SETTING
!!@CATALOGNUM:	Tsg16059f
!!@CANTO:		XVI
!!@OTTAVA:	59
!!@TITLE:	"Vattene pur, crudel, con quella pace
!!@SETTINGTITLE: Vatene pur, crudel, con quella pace
!!@COMPOSER:	Eredi, Francesco
!!@PARTS:		2 of 9
!!@PRINCEPSTITLE:	L'Armida del Tasso posta in musica a cinque voci, col suo basso per suonare
!!@PRINCEPSLOC:	Venice
!!@NORMLOC:	Venice
!!@NORMPUB:	Alessandro Vincenti
!!@NORMPUBSHORT:	A. Vincenti
!!@PRINCEPSPUB:	Alessandro Vincenti
!!@PRINCEPSYEAR:	1629
!!@PRINCEPSRISM:	E 741
!!@OVOICES:	5+bc
!!@EXTANTVOICES:	5+bc
!!@OMENSURATION:	C; 3/2; C
!!@OCLEFS:	C1,C3,C4,C4,F4,F4
!!@OTIME:		
!!@OKEYSIG:	b-
!!@FINAL:		(D)G
!!@TIMPEDITOR:	Mazzetti, Marcello; Ticli, Livio
!!@REPRINTS:	
!!@@END: SETTING
